actions/16/adjustlevels.svg

<svg xmlns="http://www.w3.org/2000/svg" style="fill-rule:evenodd;clip-rule:evenodd;stroke-linejoin:round;stroke-miterlimit:2" width="100%" height="100%" viewBox="0 0 16 16" xml:space="preserve">
 <defs>
  <style id="current-color-scheme" type="text/css">
   .ColorScheme-Text { color:#dfdfdf; } .ColorScheme-Highlight { color:#4285f4; } .ColorScheme-NeutralText { color:#ff9800; } .ColorScheme-PositiveText { color:#4caf50; } .ColorScheme-NegativeText { color:#f44336; }
  </style>
 </defs>
 <path style="fill:currentColor" class="ColorScheme-Text" d="M3.589,10.15l0,-1.229c0,-0.411 0.333,-0.744 0.743,-0.744l1.488,0c0.41,0 0.743,0.333 0.743,0.744l0,1.229l8.437,0l0,1.046l-8.437,0l0,1.229c0,0.411 -0.333,0.744 -0.743,0.744l-1.488,0c-0.41,0 -0.743,-0.333 -0.743,-0.744l0,-1.229l-2.589,0l0,-1.046l2.589,0Zm6,-5.346l0,-1.229c0,-0.411 0.333,-0.744 0.743,-0.744l1.488,-0c0.41,-0 0.743,0.333 0.743,0.744l0,1.229l2.437,-0l0,1.046l-2.437,-0l0,1.229c0,0.411 -0.333,0.744 -0.743,0.744l-1.488,-0c-0.41,-0 -0.743,-0.333 -0.743,-0.744l0,-1.229l-8.589,-0l0,-1.046l8.589,-0Z"/>
</svg>

<svg xmlns="http://www.w3.org/2000/svg" style="fill-rule:evenodd;clip-rule:evenodd;stroke-linejoin:round;stroke-miterlimit:2" viewBox="0 0 16 16" xml:space="preserve">
    <defs>
        <style id="current-color-scheme" type="text/css">
            .ColorScheme-Highlight{color:#4285f4}.ColorScheme-NeutralText{color:#ff9800}.ColorScheme-PositiveText{color:#4caf50}.ColorScheme-NegativeText{color:#f44336}
        </style>
    </defs>
    <path style="fill:currentColor;color:#dfdfdf" d="M3.589 10.15V8.921c0-.411.333-.744.743-.744H5.82c.41 0 .743.333.743.744v1.229H15v1.046H6.563v1.229a.744.744 0 0 1-.743.744H4.332a.744.744 0 0 1-.743-.744v-1.229H1V10.15h2.589Zm6-5.346V3.575c0-.411.333-.744.743-.744h1.488c.41 0 .743.333.743.744v1.229H15V5.85h-2.437v1.229a.744.744 0 0 1-.743.744h-1.488a.744.744 0 0 1-.743-.744V5.85H1V4.804h8.589Z"/>
</svg>
